**kern	**kern
*part1	*part1
*staff2	*staff1
*I"Piano	*
*clefF4	*clefG2
*k[b-e-]	*k[b-e-]
*M6/8	*M6/8
=1	=1
8r	8d
=!|:	=!|:
*^	*
4.GG 4.G	8B-	8gL
.	4ryy	8d
.	.	8dJ
4.GG 4.G	8B-	8gL
.	4ryy	8d
.	.	8dJ
=	=	=
4.DD 4.D	8A	8f#XL
.	4ryy	8d
.	.	8dJ
4.DD 4.D	8A	8f#L
.	4ryy	8d
.	.	8dJ
=	=	=
4.GG 4.G	8B-	8gL
.	4ryy	8d
.	.	8dJ
4.EE- 4.E-	8G	8gL
.	4ryy	8c#X
.	.	8c#J
=	=	=
4.DD 4.D	8A	8f#XL
.	4ryy	8d
.	.	8dJ
4.DD 4.D	8A	8f#L
.	4ryy	8d
.	.	8dJ
*v	*v	*
=	=
4.GG 4.G	8dL 8g 8b-
.	8d
.	8dJ
4.GG 4.G	8cL 8d 8f#X 8a
.	8d
.	8dJ
=	=
4.GG 4.G	8e-L 8a 8cc
.	8e-
.	8e-J
4.GG 4.G	8dL 8g 8b-
.	8d
.	8dJ
=	=
*-	*-
!!!system-decoration: {(s1,s2)}
